public/images/temp-image.svg

<svg xmlns="http://www.w3.org/2000/svg" width="224" height="148" fill="none"><rect width="224" height="148" fill="#0F172A" rx="3"/><path fill="#6B7280" fill-rule="evenodd" d="M122.87 66.1598c2.024 0 3.665-1.7183 3.665-3.838 0-2.1196-1.641-3.8379-3.665-3.8379s-3.665 1.7183-3.665 3.8379c0 2.1197 1.641 3.838 3.665 3.838Zm-10.144 23.2405H90.5708c-.7773 0-1.2574-.8479-.8576-1.5144l15.1158-25.1987c.382-.6375 1.299-.6543 1.697-.0269 1.958 3.0804 6.883 10.8414 11.073 17.5364l4.544-7.6204c.368-.6165 1.231-.6367 1.641-.0384l10.462 15.2793c.459.67.013 1.5873-.777 1.5953l-10.152.1037-10.591-.1159Z" clip-rule="evenodd"/></svg>

<svg width="224" height="148" viewBox="0 0 224 148" fill="none" xmlns="http://www.w3.org/2000/svg">
<rect width="224" height="148" rx="3" fill="#0F172A"/>
<path fill-rule="evenodd" clip-rule="evenodd" d="M122.87 66.1598C124.894 66.1598 126.535 64.4415 126.535 62.3218C126.535 60.2022 124.894 58.4839 122.87 58.4839C120.846 58.4839 119.205 60.2022 119.205 62.3218C119.205 64.4415 120.846 66.1598 122.87 66.1598ZM112.726 89.4003H90.5708C89.7935 89.4003 89.3134 88.5524 89.7132 87.8859L104.829 62.6872C105.211 62.0497 106.128 62.0329 106.526 62.6603C108.484 65.7407 113.409 73.5017 117.599 80.1967L122.143 72.5763C122.511 71.9598 123.374 71.9396 123.784 72.5379L134.246 87.8172C134.705 88.4872 134.259 89.4045 133.469 89.4125L123.317 89.5162L112.726 89.4003Z" fill="#6B7280"/>
</svg>
